Newaita-dark/actions/scalable/format-line-spacing-triple.svg

<?xml version="1.0" encoding="UTF-8"?>
<svg xmlns="http://www.w3.org/2000/svg" xmlns:xlink="http://www.w3.org/1999/xlink" width="512pt" height="512pt" viewBox="0 0 512 512" version="1.1">
<g id="surface1">
<path style=" stroke:none;fill-rule:nonzero;fill:rgb(47.058824%,56.470591%,61.176473%);fill-opacity:1;" d="M 31.753906 67.507812 L 31.753906 448.542969 L 137.597656 448.542969 L 137.597656 406.207031 L 74.089844 406.207031 L 74.089844 279.191406 L 95.257812 279.191406 L 95.257812 236.855469 L 74.089844 236.855469 L 74.089844 109.84375 L 137.597656 109.84375 L 137.597656 67.507812 Z M 31.753906 67.507812 "/>
<path style=" stroke:none;fill-rule:nonzero;fill:rgb(74.117649%,74.117649%,74.117649%);fill-opacity:1;" d="M 158.765625 25.167969 C 147.039062 25.167969 137.597656 34.609375 137.597656 46.335938 L 137.597656 131.011719 C 137.597656 142.738281 147.039062 152.179688 158.765625 152.179688 L 455.125 152.179688 C 466.855469 152.179688 476.296875 142.738281 476.296875 131.011719 L 476.296875 46.335938 C 476.296875 34.609375 466.855469 25.167969 455.125 25.167969 Z M 179.933594 56.921875 L 433.957031 56.921875 C 439.820312 56.921875 444.542969 64.003906 444.542969 72.796875 L 444.542969 104.550781 C 444.542969 113.347656 439.820312 120.429688 433.957031 120.429688 L 179.933594 120.429688 C 174.070312 120.429688 169.347656 113.347656 169.347656 104.550781 L 169.347656 72.796875 C 169.347656 64.003906 174.070312 56.921875 179.933594 56.921875 Z M 179.933594 56.921875 "/>
<path style=" stroke:none;fill-rule:nonzero;fill:rgb(74.117649%,74.117649%,74.117649%);fill-opacity:1;" d="M 158.765625 363.867188 C 147.039062 363.867188 137.597656 373.308594 137.597656 385.035156 L 137.597656 469.710938 C 137.597656 481.4375 147.039062 490.878906 158.765625 490.878906 L 455.125 490.878906 C 466.855469 490.878906 476.296875 481.4375 476.296875 469.710938 L 476.296875 385.035156 C 476.296875 373.308594 466.855469 363.867188 455.125 363.867188 Z M 179.933594 395.621094 L 433.957031 395.621094 C 439.820312 395.621094 444.542969 402.703125 444.542969 411.496094 L 444.542969 443.25 C 444.542969 452.046875 439.820312 459.128906 433.957031 459.128906 L 179.933594 459.128906 C 174.070312 459.128906 169.347656 452.046875 169.347656 443.25 L 169.347656 411.496094 C 169.347656 402.703125 174.070312 395.621094 179.933594 395.621094 Z M 179.933594 395.621094 "/>
</g>
</svg>

<svg xmlns="http://www.w3.org/2000/svg" width="512pt" height="512pt" viewBox="0 0 512 512"><path d="M31.754 67.508v381.035h105.844v-42.336H74.09V279.191h21.168v-42.336H74.09V109.844h63.508V67.508zm0 0" fill="#78909c"/><path d="M158.766 25.168a21.122 21.122 0 0 0-21.168 21.168v84.676a21.122 21.122 0 0 0 21.168 21.168h296.359a21.123 21.123 0 0 0 21.172-21.168V46.336a21.123 21.123 0 0 0-21.172-21.168zm21.168 31.754h254.023c5.863 0 10.586 7.082 10.586 15.875v31.754c0 8.797-4.723 15.879-10.586 15.879H179.934c-5.864 0-10.586-7.082-10.586-15.88V72.798c0-8.793 4.722-15.875 10.586-15.875zm0 0M158.766 363.867a21.122 21.122 0 0 0-21.168 21.168v84.676a21.122 21.122 0 0 0 21.168 21.168h296.359a21.123 21.123 0 0 0 21.172-21.168v-84.676a21.123 21.123 0 0 0-21.172-21.168zm21.168 31.754h254.023c5.863 0 10.586 7.082 10.586 15.875v31.754c0 8.797-4.723 15.879-10.586 15.879H179.934c-5.864 0-10.586-7.082-10.586-15.879v-31.754c0-8.793 4.722-15.875 10.586-15.875zm0 0" fill="#bdbdbd"/></svg>
